packages/ui/public/icons/edit-pass.svg

<svg width="20" height="20" viewBox="0 0 20 20" fill="none" xmlns="http://www.w3.org/2000/svg">
    <path d="M9.02871 2.80078H4.52871C3.57393 2.80078 2.65831 3.18006 1.98318 3.85519C1.30805 4.53033 0.928711 5.446 0.928711 6.40078V15.4008C0.928711 16.3556 1.30805 17.2712 1.98318 17.9464C2.65831 18.6215 3.57393 19.0008 4.52871 19.0008H14.4287C16.4177 19.0008 17.1287 17.3808 17.1287 15.4008V10.9008" stroke="#C943A8" stroke-opacity="0.75" stroke-width="1.5" stroke-linecap="round" stroke-linejoin="round"/>
    <path d="M18.2419 5.03804L9.65595 13.624C8.80095 14.479 6.26292 14.875 5.69592 14.308C5.12892 13.741 5.51592 11.203 6.37092 10.348L14.9659 1.75302C15.1779 1.52178 15.4345 1.33589 15.7203 1.20656C16.0061 1.07723 16.3151 1.00712 16.6287 1.00051C16.9424 0.993912 17.2541 1.05092 17.5451 1.16811C17.836 1.2853 18.1003 1.46026 18.3218 1.68238C18.5433 1.9045 18.7175 2.16919 18.8339 2.46049C18.9503 2.75179 19.0065 3.06364 18.999 3.37724C18.9915 3.69085 18.9206 3.99972 18.7905 4.28515C18.6604 4.57059 18.4738 4.82671 18.2419 5.03804V5.03804Z" stroke="#C943A8" stroke-width="1.5" stroke-linecap="round" stroke-linejoin="round"/>
</svg>

<svg width="20" height="20" fill="none" xmlns="http://www.w3.org/2000/svg"><path d="M9.029 2.8h-4.5a3.6 3.6 0 0 0-3.6 3.6v9a3.6 3.6 0 0 0 3.6 3.6h9.9c1.989 0 2.7-1.62 2.7-3.6v-4.5" stroke="#C943A8" stroke-opacity=".75" stroke-width="1.5" stroke-linecap="round" stroke-linejoin="round"/><path d="m18.242 5.038-8.586 8.586c-.855.855-3.393 1.251-3.96.684-.567-.567-.18-3.105.675-3.96l8.595-8.595a2.322 2.322 0 1 1 3.276 3.285v0Z" stroke="#C943A8" stroke-width="1.5" stroke-linecap="round" stroke-linejoin="round"/></svg>
